X: 21473
T: PEGGY UP THE BURN -- Reel
R: reel
B: K\"ohler's Violin Repository, v.2, 1885 p.147 #3
F: http://www.archive.org/details/klersviolinrepos02rugg
Z: 2012 John Chambers <jc:trillian.mit.edu>
M: C|
L: 1/8
K: F
   uc2 |     (fg)ag  (fe)df | ecgc acgc   |     (fg)ag  (fe)dc | Add^c d2 :|
|: uf2 | cF ((3dc=B) (cF)cf | AdcA G2(AB) | cF ((3dc=B) (cF)cf | Add^c d2 :|

%%sep 2 1 500

